contact-app/web/src/assets/images/magnifier-question.svg

<svg width="58" height="58" viewBox="0 0 58 58" fill="none" xmlns="http://www.w3.org/2000/svg">
<path d="M34.4398 9.06161C31.0855 9.06163 27.835 10.2247 25.2421 12.3527C22.6491 14.4806 20.8743 17.4418 20.2199 20.7317C19.5655 24.0216 20.0721 27.4366 21.6533 30.3948C23.2346 33.3531 25.7926 35.6715 28.8916 36.9551C31.9906 38.2388 35.4388 38.4082 38.6487 37.4344C41.8586 36.4607 44.6315 34.4041 46.4951 31.6151C48.3586 28.8261 49.1974 25.4772 48.8687 22.139C48.5399 18.8008 47.0638 15.68 44.6919 13.3081C43.3488 11.9575 41.751 10.8868 39.9913 10.1578C38.2315 9.42892 36.3446 9.05632 34.4398 9.06161ZM34.4398 0C47.4523 0 58 10.5477 58 23.5602C58 36.5726 47.4523 47.1204 34.4398 47.1204C21.4274 47.1204 10.8796 36.5726 10.8796 23.5602C10.8796 10.5477 21.4274 0 34.4398 0Z" fill="#FC5050"/>
<path opacity="0.6" d="M0.788774 50.1448L12.0818 38.8517C12.3349 38.5995 12.6353 38.3997 12.9657 38.2636C13.2961 38.1275 13.6501 38.058 14.0074 38.0588H15.8537L19.9314 42.1366V43.9829C19.9323 44.3402 19.8627 44.6942 19.7267 45.0246C19.5906 45.355 19.3908 45.6554 19.1385 45.9085L7.8455 57.2015C7.59391 57.4546 7.29477 57.6554 6.96527 57.7925C6.63578 57.9295 6.28244 58.0001 5.92557 58.0001C5.56871 58.0001 5.21537 57.9295 4.88588 57.7925C4.55638 57.6554 4.25723 57.4546 4.00564 57.2015L0.800102 53.996C0.289785 53.4857 0.00213814 52.7943 1.52588e-05 52.0727C-0.00210571 51.3511 0.281467 50.658 0.788774 50.1448Z" fill="#FC5050"/>
<path d="M31.9026 27.1034V22.6064H34.3062C35.2194 22.6064 35.8999 22.3651 36.3479 21.8827C36.7959 21.383 37.0199 20.78 37.0199 20.0736C37.0199 19.5739 36.9165 19.1431 36.7097 18.7813C36.5202 18.4023 36.2359 18.1093 35.8569 17.9026C35.495 17.6786 35.0557 17.5666 34.5388 17.5666C33.9874 17.5666 33.5222 17.6872 33.1431 17.9284C32.7641 18.1524 32.4712 18.4539 32.2644 18.833C32.0577 19.2121 31.9543 19.6428 31.9543 20.1252H28C28 18.9881 28.2498 17.9629 28.7495 17.0497C29.2664 16.1193 30.0245 15.3784 31.0239 14.827C32.0232 14.2757 33.2293 14 34.6422 14C35.9516 14 37.0802 14.2498 38.0278 14.7495C38.9755 15.2319 39.7078 15.9039 40.2247 16.7654C40.7416 17.6269 41 18.6176 41 19.7376V20.0477C41 21.1504 40.7329 22.1239 40.1988 22.9682C39.6819 23.7952 38.9238 24.45 37.9245 24.9324C36.9251 25.3976 35.7104 25.6474 34.2803 25.6819L36.0636 24.2604L36.0119 27.1034H31.9026Z" fill="#FC5050"/>
<path opacity="0.6" d="M31.5925 29.2744V33.4354H36.2962V29.2744H31.5925Z" fill="#FC5050"/>
</svg>

<svg xmlns="http://www.w3.org/2000/svg" width="58" height="58" fill="none"><path fill="#FC5050" d="M34.44 9.06a14.5 14.5 0 1 0 0 29 14.5 14.5 0 0 0 0-29Zm0-9.06a23.56 23.56 0 1 1 0 47.12 23.56 23.56 0 0 1 0-47.12Z"/><path fill="#FC5050" d="m.79 50.14 11.3-11.29a2.72 2.72 0 0 1 1.92-.8h1.84l4.08 4.09v1.84a2.72 2.72 0 0 1-.8 1.93L7.86 57.2a2.7 2.7 0 0 1-3.84 0L.8 54a2.73 2.73 0 0 1-.01-3.86Z" opacity="0.6"/><path fill="#FC5050" d="M31.9 27.1v-4.5h2.4c.92 0 1.6-.23 2.05-.72.45-.5.67-1.1.67-1.8 0-.5-.1-.94-.31-1.3a2 2 0 0 0-.85-.88c-.37-.22-.8-.33-1.32-.33a2.55 2.55 0 0 0-2.28 1.26c-.2.38-.3.81-.3 1.3H28c0-1.14.25-2.17.75-3.08a5.65 5.65 0 0 1 2.27-2.22c1-.55 2.2-.83 3.62-.83 1.31 0 2.44.25 3.39.75A5.3 5.3 0 0 1 41 19.74v.3c0 1.11-.27 2.08-.8 2.93a5.33 5.33 0 0 1-2.28 1.96c-1 .47-2.21.72-3.64.75l1.78-1.42-.05 2.84h-4.1Z"/><path fill="#FC5050" d="M31.6 29.27v4.17h4.7v-4.17h-4.7Z" opacity="0.6"/></svg>
